source/_posts/luogu-p3524/1.svg

<svg xmlns="http://www.w3.org/2000/svg" width="412pt" height="532" viewBox="0 0 412.08 399.48"><g class="graph"><path fill="#fff" stroke="transparent" d="M0 399.48V0h412.08v399.48z"/><g class="node" transform="translate(4 395.48)"><ellipse cx="106.36" cy="-352.04" fill="none" stroke="#000" stroke-width="2" rx="27" ry="18"/><text x="106.36" y="-348.34" font-family="Times New Roman,serif" font-size="14" text-anchor="middle">1</text></g><g class="node" transform="translate(4 395.48)"><ellipse cx="334.85" cy="-79.73" fill="none" stroke="#000" rx="27" ry="18"/><text x="334.85" y="-76.03" font-family="Times New Roman,serif" font-size="14" text-anchor="middle">3</text></g><g class="edge" transform="translate(4 395.48)"><path fill="none" stroke="#000" d="M119.63-336.22c40.38 48.13 161.48 192.44 201.92 240.63"/></g><g class="node" transform="translate(4 395.48)"><ellipse cx="227.94" cy="-18" fill="none" stroke="#000" rx="27" ry="18"/><text x="227.94" y="-14.3" font-family="Times New Roman,serif" font-size="14" text-anchor="middle">5</text></g><g class="edge" transform="translate(4 395.48)"><path fill="none" stroke="#000" d="M112.89-334.08c21.16 58.13 87.63 240.76 108.63 298.44"/></g><g class="node" transform="translate(4 395.48)"><ellipse cx="106.36" cy="-39.44" fill="none" stroke="#000" rx="27" ry="18"/><text x="106.36" y="-35.74" font-family="Times New Roman,serif" font-size="14" text-anchor="middle">6</text></g><g class="edge" transform="translate(4 395.48)"><path fill="none" stroke="#000" d="M106.36-333.88v276.23"/></g><g class="node" transform="translate(4 395.48)"><ellipse cx="227.94" cy="-373.48" fill="none" stroke="#000" rx="27" ry="18"/><text x="227.94" y="-369.78" font-family="Times New Roman,serif" font-size="14" text-anchor="middle">7</text></g><g class="edge" transform="translate(4 395.48)"><path fill="none" stroke="#000" d="M132.74-356.69c20.39-3.6 48.49-8.55 68.87-12.15"/></g><g class="node" transform="translate(4 395.48)"><ellipse cx="377.08" cy="-195.74" fill="none" stroke="#000" rx="27" ry="18"/><text x="377.08" y="-192.04" font-family="Times New Roman,serif" font-size="14" text-anchor="middle">8</text></g><g class="edge" transform="translate(4 395.48)"><path fill="none" stroke="#000" d="M127.15-340.04c50.52 29.17 179.23 103.48 229.44 132.47"/></g><g class="node" transform="translate(4 395.48)"><ellipse cx="334.85" cy="-311.75" fill="none" stroke="#000" stroke-width="2" rx="27" ry="18"/><text x="334.85" y="-308.05" font-family="Times New Roman,serif" font-size="14" text-anchor="middle">9</text></g><g class="edge" transform="translate(4 395.48)"><path fill="none" stroke="#000" d="M334.85-293.54v195.69"/></g><g class="edge" transform="translate(4 395.48)"><path fill="none" stroke="#000" d="M328.49-294.26c-18.97 52.13-74.98 206-94.08 258.48"/></g><g class="edge" transform="translate(4 395.48)"><path fill="none" stroke="#000" d="M321.58-295.93C281.2-247.8 160.1-103.49 119.67-55.3"/></g><g class="node" transform="translate(4 395.48)"><ellipse cx="27" cy="-134.01" fill="none" stroke="#000" rx="27" ry="18"/><text x="27" y="-130.31" font-family="Times New Roman,serif" font-size="14" text-anchor="middle">2</text></g><g class="edge" transform="translate(4 395.48)"><path fill="none" stroke="#000" d="M314.18-299.81A3930443 3930443 0 0 0 47.59-145.9"/></g><g class="node" transform="translate(4 395.48)"><ellipse cx="27" cy="-257.47" fill="none" stroke="#000" rx="27" ry="18"/><text x="27" y="-253.77" font-family="Times New Roman,serif" font-size="14" text-anchor="middle">4</text></g><g class="edge" transform="translate(4 395.48)"><path fill="none" stroke="#000" d="M308.61-307.12c-58.17 10.25-197.33 34.79-255.43 45.04"/></g><g class="edge" transform="translate(4 395.48)"><path fill="none" stroke="#000" d="M314.24-67.83c-18.93 10.93-46.84 27.05-65.75 37.96"/></g><g class="edge" transform="translate(4 395.48)"><path fill="none" stroke="#000" d="M314.18-91.67A3930443 3930443 0 0 1 47.59-245.58"/></g><g class="edge" transform="translate(4 395.48)"><path fill="none" stroke="#000" d="M201.56-22.65c-20.4-3.6-48.49-8.55-68.87-12.15"/></g><g class="edge" transform="translate(4 395.48)"><path fill="none" stroke="#000" d="M132.57-44.06c43.96-7.75 132.04-23.28 176.03-31.04"/></g><g class="edge" transform="translate(4 395.48)"><path fill="none" stroke="#000" d="M248.55-361.58c18.93 10.93 46.84 27.04 65.75 37.96"/></g><g class="edge" transform="translate(4 395.48)"><path fill="none" stroke="#000" d="M370.67-213.36c-7.94-21.8-21.38-58.72-29.34-80.61"/></g><g class="edge" transform="translate(4 395.48)"><path fill="none" stroke="#000" d="M33.49-151.85c14.92-40.99 51.5-141.48 66.39-182.41"/></g><g class="edge" transform="translate(4 395.48)"><path fill="none" stroke="#000" d="M53.25-129.38c58.16 10.25 197.32 34.79 255.42 45.04"/></g><g class="edge" transform="translate(4 395.48)"><path fill="none" stroke="#000" d="M47.75-122.03c38.6 22.29 121.03 69.88 159.55 92.12"/></g><g class="edge" transform="translate(4 395.48)"><path fill="none" stroke="#000" d="M40.46-117.97c14.68 17.5 38.03 45.32 52.63 62.73"/></g><g class="edge" transform="translate(4 395.48)"><path fill="none" stroke="#000" d="M27-152.23v-86.95"/></g><g class="edge" transform="translate(4 395.48)"><path fill="none" stroke="#000" d="M40.46-273.51c14.68-17.5 38.03-45.32 52.63-62.73"/></g><g class="edge" transform="translate(4 395.48)"><path fill="none" stroke="#000" d="M40.18-241.76C76.59-198.37 178.24-77.23 214.71-33.77"/></g><g class="edge" transform="translate(4 395.48)"><path fill="none" stroke="#000" d="M33.49-239.63c14.92 40.99 51.5 141.48 66.39 182.41"/></g></g></svg>

<?xml version="1.0" encoding="UTF-8"?><svg xmlns="http://www.w3.org/2000/svg" xmlns:xlink="http://www.w3.org/1999/xlink" width="412pt" height="399pt" viewBox="0.00 0.00 412.08 399.48"><g id="graph0" class="graph" transform="scale(1 1) rotate(0) translate(4 395.48)"><polygon fill="white" stroke="transparent" points="-4,4 -4,-395.48 408.08,-395.48 408.08,4 -4,4"/><g id="node1" class="node"><title>1</title><ellipse fill="none" stroke="black" stroke-width="2" cx="106.36" cy="-352.04" rx="27" ry="18"/><text text-anchor="middle" x="106.36" y="-348.34" font-family="Times New Roman,serif" font-size="14.00">1</text></g><g id="node3" class="node"><title>3</title><ellipse fill="none" stroke="black" cx="334.85" cy="-79.73" rx="27" ry="18"/><text text-anchor="middle" x="334.85" y="-76.03" font-family="Times New Roman,serif" font-size="14.00">3</text></g><g id="edge1" class="edge"><title>1--3</title><path fill="none" stroke="black" d="M119.63,-336.22C160.01,-288.09 281.11,-143.78 321.55,-95.59"/></g><g id="node4" class="node"><title>5</title><ellipse fill="none" stroke="black" cx="227.94" cy="-18" rx="27" ry="18"/><text text-anchor="middle" x="227.94" y="-14.3" font-family="Times New Roman,serif" font-size="14.00">5</text></g><g id="edge2" class="edge"><title>1--5</title><path fill="none" stroke="black" d="M112.89,-334.08C134.05,-275.95 200.52,-93.32 221.52,-35.64"/></g><g id="node5" class="node"><title>6</title><ellipse fill="none" stroke="black" cx="106.36" cy="-39.44" rx="27" ry="18"/><text text-anchor="middle" x="106.36" y="-35.74" font-family="Times New Roman,serif" font-size="14.00">6</text></g><g id="edge3" class="edge"><title>1--6</title><path fill="none" stroke="black" d="M106.36,-333.88C106.36,-278.63 106.36,-112.96 106.36,-57.65"/></g><g id="node6" class="node"><title>7</title><ellipse fill="none" stroke="black" cx="227.94" cy="-373.48" rx="27" ry="18"/><text text-anchor="middle" x="227.94" y="-369.78" font-family="Times New Roman,serif" font-size="14.00">7</text></g><g id="edge4" class="edge"><title>1--7</title><path fill="none" stroke="black" d="M132.74,-356.69C153.13,-360.29 181.23,-365.24 201.61,-368.84"/></g><g id="node7" class="node"><title>8</title><ellipse fill="none" stroke="black" cx="377.08" cy="-195.74" rx="27" ry="18"/><text text-anchor="middle" x="377.08" y="-192.04" font-family="Times New Roman,serif" font-size="14.00">8</text></g><g id="edge5" class="edge"><title>1--8</title><path fill="none" stroke="black" d="M127.15,-340.04C177.67,-310.87 306.38,-236.56 356.59,-207.57"/></g><g id="node2" class="node"><title>9</title><ellipse fill="none" stroke="black" stroke-width="2" cx="334.85" cy="-311.75" rx="27" ry="18"/><text text-anchor="middle" x="334.85" y="-308.05" font-family="Times New Roman,serif" font-size="14.00">9</text></g><g id="edge20" class="edge"><title>9--3</title><path fill="none" stroke="black" d="M334.85,-293.54C334.85,-250.17 334.85,-141.14 334.85,-97.85"/></g><g id="edge21" class="edge"><title>9--5</title><path fill="none" stroke="black" d="M328.49,-294.26C309.52,-242.13 253.51,-88.26 234.41,-35.78"/></g><g id="edge22" class="edge"><title>9--6</title><path fill="none" stroke="black" d="M321.58,-295.93C281.2,-247.8 160.1,-103.49 119.67,-55.3"/></g><g id="node8" class="node"><title>2</title><ellipse fill="none" stroke="black" cx="27" cy="-134.01" rx="27" ry="18"/><text text-anchor="middle" x="27" y="-130.31" font-family="Times New Roman,serif" font-size="14.00">2</text></g><g id="edge23" class="edge"><title>9--2</title><path fill="none" stroke="black" d="M314.18,-299.81C258.09,-267.43 103.56,-178.22 47.59,-145.9"/></g><g id="node9" class="node"><title>4</title><ellipse fill="none" stroke="black" cx="27" cy="-257.47" rx="27" ry="18"/><text text-anchor="middle" x="27" y="-253.77" font-family="Times New Roman,serif" font-size="14.00">4</text></g><g id="edge24" class="edge"><title>9--4</title><path fill="none" stroke="black" d="M308.61,-307.12C250.44,-296.87 111.28,-272.33 53.18,-262.08"/></g><g id="edge11" class="edge"><title>3--5</title><path fill="none" stroke="black" d="M314.24,-67.83C295.31,-56.9 267.4,-40.78 248.49,-29.87"/></g><g id="edge12" class="edge"><title>3--4</title><path fill="none" stroke="black" d="M314.18,-91.67C258.09,-124.05 103.56,-213.26 47.59,-245.58"/></g><g id="edge16" class="edge"><title>5--6</title><path fill="none" stroke="black" d="M201.56,-22.65C181.16,-26.25 153.07,-31.2 132.69,-34.8"/></g><g id="edge17" class="edge"><title>6--3</title><path fill="none" stroke="black" d="M132.57,-44.06C176.53,-51.81 264.61,-67.34 308.6,-75.1"/></g><g id="edge18" class="edge"><title>7--9</title><path fill="none" stroke="black" d="M248.55,-361.58C267.48,-350.65 295.39,-334.54 314.3,-323.62"/></g><g id="edge19" class="edge"><title>8--9</title><path fill="none" stroke="black" d="M370.67,-213.36C362.73,-235.16 349.29,-272.08 341.33,-293.97"/></g><g id="edge6" class="edge"><title>2--1</title><path fill="none" stroke="black" d="M33.49,-151.85C48.41,-192.84 84.99,-293.33 99.88,-334.26"/></g><g id="edge7" class="edge"><title>2--3</title><path fill="none" stroke="black" d="M53.25,-129.38C111.41,-119.13 250.57,-94.59 308.67,-84.34"/></g><g id="edge8" class="edge"><title>2--5</title><path fill="none" stroke="black" d="M47.75,-122.03C86.35,-99.74 168.78,-52.15 207.3,-29.91"/></g><g id="edge9" class="edge"><title>2--6</title><path fill="none" stroke="black" d="M40.46,-117.97C55.14,-100.47 78.49,-72.65 93.09,-55.24"/></g><g id="edge10" class="edge"><title>2--4</title><path fill="none" stroke="black" d="M27,-152.23C27,-175.57 27,-215.8 27,-239.18"/></g><g id="edge13" class="edge"><title>4--1</title><path fill="none" stroke="black" d="M40.46,-273.51C55.14,-291.01 78.49,-318.83 93.09,-336.24"/></g><g id="edge14" class="edge"><title>4--5</title><path fill="none" stroke="black" d="M40.18,-241.76C76.59,-198.37 178.24,-77.23 214.71,-33.77"/></g><g id="edge15" class="edge"><title>4--6</title><path fill="none" stroke="black" d="M33.49,-239.63C48.41,-198.64 84.99,-98.15 99.88,-57.22"/></g></g></svg>
